X:1
T:Title
L:1/8
Q:1/4=100
M:6/8
K:G
V:1 treble nm="Church Organ, Staff"
V:1
 G2 F G2 e | e2 d cBA | GAB c2 B | B2 A G3 | G2 F G2 e | e2 d cBA | GBc ded | cEF GBA | A2 G GEF | %9
w: By~Rev.~J.~B.~Dykes * * *|||||||||
 A3 G2 =F | E2 D E2 =F | G2 G =F3 | C F2 E F2 | G A2- A/ z/ G2- | G G2 G c2 | cdc d ^d2- | %16
w: |||||||
 d ^d2 c=fd | d c2- c e2 | d c2- c c2- | c G2- G/ z/ G2- | G G2- G/ z/ G2- | G G2- G G2- | %22
w: ||||||
 G G2- G/ z/ G2- | G3 z3 |] %24
w: ||

